X: 20371
Q: "Allegretto"
M: C
L: 1/16
K: G
(BA) |\
|: (Bc) |\
(dc).B.A (GA).B.c d2d2 B4 | (c_B).A.G (=FG).A.B c2c2 A4 |\
(dc).B.A (GA).B.c d2d2B2d2 | (cB).A.G (FG).A.c B2G2G2 (Bc) |
(dc).B.A (GA).B.c d2d2B2 | (c_B).A.G (=FG).A.B c2c2 A4 |\
(dc).B.A (GA)Bc d2g2b3d' | (c'b).a.g (fg).a.c' b2g2g2 |]


